javascript.info/1-js/02-first-steps/04-variables/variable.svg

<?xml version="1.0" encoding="UTF-8"?>
<svg width="166px" height="145px" viewBox="0 0 166 145" version="1.1" xmlns="http://www.w3.org/2000/svg" xmlns:xlink="http://www.w3.org/1999/xlink">
    <!-- Generator: sketchtool 55.2 (78181) - https://sketchapp.com -->
    <title>variable.svg</title>
    <desc>Created with sketchtool.</desc>
    <g id="combined" stroke="none" stroke-width="1" fill="none" fill-rule="evenodd">
        <g id="variable.svg">
            <g id="noun_1211_cc-+-Message" transform="translate(13.000000, 3.000000)">
                <g id="noun_1211_cc">
                    <path d="M17,37.1960457 L129.557785,37.1960457 L129.557785,80.1456641 C129.557785,80.5185728 129.479295,81.0083855 129.279367,81.4404861 C129.07944,81.8725868 112.704625,117 112.704625,117 L112.704625,62.6396695 L129.559266,37.1960457 L148,9 L35.4407339,9 L17,37.1960457 L17,37.1960457 Z" id="Shape" fill="#E8C48F"></path>
                    <polyline id="Shape" fill="#E8C48F" points="17 66 17 38 2 66"></polyline>
                    <g id="Rectangle-5-+-&quot;World!&quot;" transform="translate(15.000000, 0.000000)">
                        <path d="M18.8613371,1.80856046 L1.99871056,17.5332141 L55.1386629,74.5188362 L72.0012894,58.7941826 L18.8613371,1.80856046 Z" id="Rectangle-5" stroke="#8A704D" stroke-width="2" fill="#FFF9EB"></path>
                        <text id="&quot;Hello!&quot;" transform="translate(40.081064, 39.767828) rotate(47.000000) translate(-40.081064, -39.767828) " font-family="OpenSans-SemiBold, Open Sans" font-size="14" font-weight="500" line-spacing="17" fill="#8A704D">
                            <tspan x="10.5885761" y="46.2678284">"Hello!"</tspan>
                        </text>
                    </g>
                    <path d="M0,68 L0,122.729971 C0,126.150501 1.4836395,128 4.38712201,128 L104.473443,128 C107.59502,128 110,125.4521 110,124.524372 L110,68 L0,68 L0,68 Z" id="Shape" fill="#E8C48F"></path>
                </g>
                <text id="message" font-family="OpenSans-SemiBold, Open Sans" font-size="18" font-weight="500" fill="#FFFFFF">
                    <tspan x="17" y="105">message</tspan>
                </text>
            </g>
        </g>
    </g>
</svg>

<svg xmlns="http://www.w3.org/2000/svg" width="166" height="145" viewBox="0 0 166 145"><defs><style>@import url(https://fonts.googleapis.com/css?family=Open+Sans:bold,italic,bolditalic%7CPT+Mono);@font-face{font-family:&apos;PT Mono&apos;;font-weight:700;font-style:normal;src:local(&apos;PT MonoBold&apos;),url(/pack/modules/styles/blocks/font/PTMonoBold.woff2) format(&apos;woff2&apos;),url(/pack/modules/styles/blocks/font/PTMonoBold.woff) format(&apos;woff&apos;),url(/pack/modules/styles/blocks/font/PTMonoBold.ttf) format(&apos;truetype&apos;)}</style></defs><g id="combined" fill="none" fill-rule="evenodd" stroke="none" stroke-width="1"><g id="variable.svg"><g id="noun_1211_cc-+-Message" transform="translate(13 3)"><g id="noun_1211_cc"><path id="Shape" fill="#E8C48F" d="M17 37.196h112.558v42.95c0 .373-.079.862-.279 1.294-.2.433-16.574 35.56-16.574 35.56V62.64l16.854-25.444L148 9H35.44L17 37.196zM17 66V38L2 66"/><g id="Rectangle-5-+-&quot;World!&quot;" transform="translate(15)"><path id="Rectangle-5" fill="#FFF9EB" stroke="#8A704D" stroke-width="2" d="M18.861 1.809L2 17.533l53.14 56.986L72 58.794 18.861 1.81z"/><text id="&quot;Hello!&quot;" fill="#8A704D" font-family="OpenSans-Bold, Open Sans" font-size="14" font-weight="bold" transform="rotate(47 40.083 39.762)"><tspan x="10.591" y="46.262">&quot;Hello!&quot;</tspan></text></g><path id="Shape" fill="#E8C48F" d="M0 68v54.73c0 3.42 1.484 5.27 4.387 5.27h100.086c3.122 0 5.527-2.548 5.527-3.476V68H0z"/></g><text id="message" fill="#FFF" font-family="OpenSans-Bold, Open Sans" font-size="18" font-weight="bold"><tspan x="17" y="105">message</tspan></text></g></g></g></svg>
